coreui/free/cil-gift.svg

<svg xmlns="http://www.w3.org/2000/svg" viewBox="0 0 512 512">
  <path fill="var(--ci-primary-color, currentColor)" d="M472,128H371.833A71.962,71.962,0,0,0,256,42.815,71.962,71.962,0,0,0,140.167,128H40a24.028,24.028,0,0,0-24,24V473.556C16,485.932,26.767,496,40,496H472c13.233,0,24-10.068,24-22.444V152A24.028,24.028,0,0,0,472,128ZM312,48a40,40,0,0,1,0,80H272V88A40.045,40.045,0,0,1,312,48ZM160,88a40,40,0,0,1,80,0v40H200A40.045,40.045,0,0,1,160,88ZM48,464V256H192V464Zm176,0V256h64V464Zm240,0H320V256H464ZM48,224V160H464v64Z" class="ci-primary"/>
</svg>

<svg viewBox="0 0 512 512" xmlns="http://www.w3.org/2000/svg"><path d="M472 128H371.83v0c22.11-33.03 13.26-77.73-19.77-99.84 -30.99-20.75-72.68-14.39-96.07 14.64v0C231.05 11.85 185.75 6.98 154.8 31.91c-29.04 23.39-35.39 65.08-14.65 96.06H39.98v-.001c-13.25.01-23.99 10.75-24 24v321.55c-.001 12.37 10.76 22.44 24 22.44h432c13.23 0 24-10.07 24-22.45v-321.56 0c-.02-13.25-10.76-23.99-24-24ZM312 48v0c22.09 0 40 17.9 40 40 0 22.09-17.91 40-40 40h-40V88v0c.02-22.09 17.91-39.98 40-40ZM160 88v0c0-22.1 17.9-40 40-40 22.09 0 40 17.9 40 40v40h-40v0c-22.09-.03-39.98-17.92-40-40ZM48 464V256h144v208Zm176 0V256h64v208Zm240 0H320V256h144ZM48 224v-64h416v64Z"/></svg>
